icons/endocrinology_fill.svg

<svg width="48" height="48" viewBox="0 0 48 48" fill="none" xmlns="http://www.w3.org/2000/svg">
<path fill-rule="evenodd" clip-rule="evenodd" d="M6 9C6 7.34315 7.34315 6 9 6H39C40.6569 6 42 7.34315 42 9V39C42 40.6569 40.6569 42 39 42H38.9953V37.8168C39.0339 36.6904 38.8348 35.568 38.4094 34.5145C37.984 33.4611 37.3408 32.4976 36.517 31.6798C35.6933 30.862 34.7054 30.2063 33.6105 29.7504C33.0699 29.5253 32.5086 29.3512 31.9347 29.2298C31.3463 29.1053 30.7446 29.0362 30.1387 29.0243H28.8571V27.841H29.3928C29.6457 27.841 29.8958 27.8145 30.1387 27.7632L30.1636 27.7578C30.6617 27.6488 31.1294 27.4349 31.5302 27.1305C31.6212 27.0613 31.7088 26.9874 31.7926 26.9091C32.4303 26.3122 32.7911 25.5019 32.7962 24.6553V22.5619C32.7962 22.6488 33.3469 22.5974 33.6111 22.5728C33.679 22.5665 33.7279 22.5619 33.7437 22.5619C33.9793 22.5263 34.1926 22.4099 34.3425 22.2351C34.4922 22.0607 34.5682 21.8404 34.556 21.6164L34.5559 21.6153L34.5547 21.6085C34.4971 21.2731 34.3799 20.9492 34.2078 20.6505L33.7437 19.5401C33.415 18.7755 33.0863 18.0109 32.7769 17.2282C32.7769 17.2282 32.5835 15.4078 32.4094 14.7888C31.87 13.124 30.7801 11.6646 29.2984 10.6234C27.8167 9.58221 26.0206 9.01346 24.1717 9.00001C22.3825 8.99696 20.6369 9.52018 19.179 10.4966C17.7211 11.473 16.6236 12.8537 16.0399 14.4459C15.4563 16.0381 15.4156 17.7622 15.9236 19.3772C16.4315 20.9922 17.4628 22.4175 18.8732 23.4539V29.0243H17.2709C15.1197 29.0297 13.054 29.8216 11.5106 31.234C9.95669 32.656 9.05556 34.594 9 36.6335L9 42C7.34315 42 6 40.6569 6 39V9ZM36.9953 37.8168V42H25V35C25 34.4477 24.5523 34 24 34C23.4477 34 23 34.4477 23 35V42H11V36.6629C11.0469 35.1939 11.699 33.7727 12.8608 32.7095C14.0332 31.6367 15.6285 31.0201 17.3101 31.0243H18.8732C19.9778 31.0243 20.8732 30.1288 20.8732 29.0243V23.4539C20.8732 22.8175 20.5703 22.2191 20.0575 21.8422C18.9772 21.0485 18.2073 19.9722 17.8314 18.7771C17.4561 17.5839 17.4857 16.3128 17.9178 15.1343C18.3505 13.9538 19.1724 12.9081 20.2919 12.1583C21.4113 11.4087 22.7646 10.9987 24.1627 11C25.6122 11.0117 27.0084 11.4586 28.1485 12.2598C29.2745 13.0511 30.0858 14.1409 30.4918 15.3596C30.5339 15.5304 30.6052 15.9678 30.6755 16.5017C30.7088 16.7546 30.7371 16.9905 30.7572 17.1638C30.7671 17.2501 30.775 17.3202 30.7803 17.3682L30.7863 17.4227L30.788 17.439C30.8071 17.6187 30.8505 17.7954 30.9169 17.9633C31.2372 18.7738 31.5758 19.5613 31.9011 20.3178L31.9023 20.3207L32.0614 20.7012C31.3204 20.9941 30.7962 21.7168 30.7962 22.5619V24.6477C30.7933 24.9244 30.6756 25.2151 30.4258 25.4489C30.1706 25.6878 29.8011 25.841 29.3928 25.841H28.8571C27.7526 25.841 26.8571 26.7365 26.8571 27.841V29.0243C26.8571 30.1288 27.7526 31.0243 28.8571 31.0243H30.118C31.0603 31.0451 31.9862 31.2405 32.8418 31.5968C33.7029 31.9553 34.4721 32.4679 35.108 33.0992C35.7436 33.7302 36.2332 34.4669 36.5549 35.2634C36.8764 36.0596 37.0254 36.9037 36.9965 37.7482C36.9957 37.771 36.9953 37.7939 36.9953 37.8168ZM23 33C23.5523 33 24 31.8807 24 30.5C24 31.8807 24.4477 33 25 33C25.5523 33 26 31.8807 26 30.5C26 29.1193 25.5523 28 25 28C24.4477 28 24 29.1193 24 30.5C24 29.1193 23.5523 28 23 28C22.4477 28 22 29.1193 22 30.5C22 31.8807 22.4477 33 23 33Z" fill="black"/>
</svg>

<svg
  xmlns="http://www.w3.org/2000/svg"
  width="24"
  height="24"
  viewBox="0 0 24 24"
  fill="none"
  stroke="currentColor"
  stroke-width="2"
  stroke-linecap="round"
  stroke-linejoin="round"
>
  <path
    fill-rule="evenodd"
    d="M6 9a3 3 0 0 1 3-3h30a3 3 0 0 1 3 3v30a3 3 0 0 1-3 3h-.005v-4.183a8.1 8.1 0 0 0-.586-3.303 8.5 8.5 0 0 0-1.892-2.834 9.1 9.1 0 0 0-2.907-1.93 9.588 9.588 0 0 0-3.472-.726h-1.28v-1.183h.535q.38 0 .746-.078l.025-.005a3.5 3.5 0 0 0 1.629-.849 3.11 3.11 0 0 0 1.003-2.254v-2.093c0 .087.55.035.815.01.068-.005.117-.01.133-.01a.98.98 0 0 0 .599-.327.88.88 0 0 0 .213-.619l-.001-.008a2.9 2.9 0 0 0-.347-.957l-.464-1.11a85 85 0 0 1-.967-2.313s-.194-1.82-.368-2.44c-.539-1.664-1.629-3.123-3.11-4.165A9.04 9.04 0 0 0 24.171 9a8.96 8.96 0 0 0-4.993 1.497c-1.458.976-2.555 2.357-3.14 3.949a7.63 7.63 0 0 0-.115 4.931c.508 1.615 1.539 3.04 2.95 4.077v5.57H17.27c-2.151.006-4.217.798-5.76 2.21-1.554 1.422-2.455 3.36-2.511 5.4V42a3 3 0 0 1-3-3zm30.995 28.817V42H25v-7a1 1 0 1 0-2 0v7H11v-5.337c.047-1.47.699-2.89 1.86-3.953 1.173-1.073 2.769-1.69 4.45-1.686h1.563a2 2 0 0 0 2-2v-5.57a2 2 0 0 0-.816-1.612c-1.08-.793-1.85-1.87-2.226-3.065a5.63 5.63 0 0 1 .087-3.643c.433-1.18 1.254-2.226 2.374-2.976A6.96 6.96 0 0 1 24.162 11a7.04 7.04 0 0 1 3.986 1.26c1.127.791 1.938 1.88 2.344 3.1.042.17.113.608.183 1.142a44 44 0 0 1 .105.866l.006.055.002.016q.03.271.129.524c.32.81.659 1.598.984 2.355l.001.003.16.38a2 2 0 0 0-1.266 1.86v2.087c-.003.276-.12.567-.37.8a1.52 1.52 0 0 1-1.033.393h-.536a2 2 0 0 0-2 2v1.183a2 2 0 0 0 2 2h1.261c.942.021 1.868.216 2.724.573a7.1 7.1 0 0 1 2.266 1.502 6.5 6.5 0 0 1 1.447 2.164 6.1 6.1 0 0 1 .44 2.554M23 33c.552 0 1-1.12 1-2.5 0 1.38.448 2.5 1 2.5s1-1.12 1-2.5-.448-2.5-1-2.5-1 1.12-1 2.5c0-1.38-.448-2.5-1-2.5s-1 1.12-1 2.5.448 2.5 1 2.5"
    clip-rule="evenodd"
  />
</svg>
